packages/dnb-eufemia/assets/icons/file_word_medium.svg

<svg width="24" height="24" viewBox="0 0 24 24" fill="none" xmlns="http://www.w3.org/2000/svg">
<path d="M13 23H2.5C1.94772 23 1.5 22.5523 1.5 22V2C1.5 1.44772 1.94772 1 2.5 1H12.5362C12.8304 1 13.1096 1.12951 13.2996 1.35406L18.2634 7.22036C18.4162 7.40092 18.5 7.62979 18.5 7.86631V9" stroke="black" stroke-width="1.5" stroke-linecap="round" stroke-linejoin="round"/>
<path d="M8.06173 11.9999H6.21173V18.9999H8.06173C10.0317 18.9999 11.2117 17.7299 11.2117 15.4999C11.2117 13.2699 10.0317 11.9999 8.06173 11.9999ZM7.92173 17.7999H7.71173V13.1999H7.92173C9.07173 13.1999 9.68173 13.9499 9.68173 15.4999C9.68173 17.0499 9.07173 17.7999 7.92173 17.7999Z" fill="black"/>
<path d="M14.8078 11.8999C16.4878 11.8999 17.3878 13.1599 17.3878 15.4999C17.3878 17.8399 16.4878 19.0999 14.8078 19.0999C13.1278 19.0999 12.2278 17.8399 12.2278 15.4999C12.2278 13.1599 13.1278 11.8999 14.8078 11.8999ZM14.8078 17.7999C15.4778 17.7999 15.8578 16.9699 15.8578 15.4999C15.8578 14.0299 15.4778 13.1999 14.8078 13.1999C14.1378 13.1999 13.7578 14.0299 13.7578 15.4999C13.7578 16.9699 14.1378 17.7999 14.8078 17.7999Z" fill="black"/>
<path d="M19.9539 15.4999C19.9539 14.1099 20.4339 13.1999 21.1839 13.1999C21.8239 13.1999 22.1639 13.5799 22.2639 14.4099L23.6539 13.9199C23.4439 12.6399 22.5639 11.8999 21.2539 11.8999C19.4939 11.8999 18.4239 13.2599 18.4239 15.4999C18.4239 17.7799 19.4639 19.0999 21.2539 19.0999C22.4839 19.0999 23.2639 18.5399 23.6839 17.3499L22.4339 16.6599C22.1839 17.5299 21.8939 17.7999 21.2039 17.7999C20.4039 17.7999 19.9539 16.9699 19.9539 15.4999Z" fill="black"/>
</svg>

<svg width="24" height="24" viewBox="0 0 24 24" fill="none" xmlns="http://www.w3.org/2000/svg"><path d="M13 23H2.5a1 1 0 0 1-1-1V2a1 1 0 0 1 1-1h10.036a1 1 0 0 1 .764.354l4.963 5.866a1 1 0 0 1 .237.646V9" stroke="#000" stroke-width="1.5" stroke-linecap="round" stroke-linejoin="round"/><path d="M8.062 12h-1.85v7h1.85c1.97 0 3.15-1.27 3.15-3.5s-1.18-3.5-3.15-3.5Zm-.14 5.8h-.21v-4.6h.21c1.15 0 1.76.75 1.76 2.3 0 1.55-.61 2.3-1.76 2.3Zm6.886-5.9c1.68 0 2.58 1.26 2.58 3.6s-.9 3.6-2.58 3.6c-1.68 0-2.58-1.26-2.58-3.6s.9-3.6 2.58-3.6Zm0 5.9c.67 0 1.05-.83 1.05-2.3 0-1.47-.38-2.3-1.05-2.3s-1.05.83-1.05 2.3c0 1.47.38 2.3 1.05 2.3Zm5.146-2.3c0-1.39.48-2.3 1.23-2.3.64 0 .98.38 1.08 1.21l1.39-.49c-.21-1.28-1.09-2.02-2.4-2.02-1.76 0-2.83 1.36-2.83 3.6 0 2.28 1.04 3.6 2.83 3.6 1.23 0 2.01-.56 2.43-1.75l-1.25-.69c-.25.87-.54 1.14-1.23 1.14-.8 0-1.25-.83-1.25-2.3Z" fill="#000"/></svg>
